X: 1
T: Lieve's
M: 6/8
L: 1/8
R: jig
K: Dmaj
|:FAB AdA | fff efd | FA BA dA| efg fed|FAB AdA |
fff efa ||1 baf afe | fdB A2A:|2 bag agf | edc d2d||
|:eAA efg | fed edB | d2d BAd| eAA Bcd |eAA efg |
fed efa ||1 baf afe | fdB A2A :|2 bag agf | edc d2d||
